modules/stroke-7/icons/magic-wand.svg

<?xml version="1.0" encoding="utf-8"?>
<!-- Generated by IcoMoon.io -->
<!DOCTYPE svg PUBLIC "-//W3C//DTD SVG 1.1//EN" "http://www.w3.org/Graphics/SVG/1.1/DTD/svg11.dtd">
<svg version="1.1" xmlns="http://www.w3.org/2000/svg" xmlns:xlink="http://www.w3.org/1999/xlink" width="26" height="32" viewBox="0 0 26 32">
<g id="icomoon-ignore">
</g>
<path d="M-0.007 28.236l13.916-13.916 0.754 0.754-13.916 13.916-0.754-0.754z" fill="#000000"></path>
<path d="M9.973 10.453h4.267v1.067h-4.267v-1.067z" fill="#000000"></path>
<path d="M21.707 10.453h4.267v1.067h-4.267v-1.067z" fill="#000000"></path>
<path d="M17.44 14.72h1.067v4.267h-1.067v-4.267z" fill="#000000"></path>
<path d="M17.44 2.987h1.067v4.267h-1.067v-4.267z" fill="#000000"></path>
<path d="M23.991 5.717l-3.017 3.017-0.754-0.754 3.017-3.017 0.754 0.754z" fill="#000000"></path>
<path d="M23.246 17.042l-3.017-3.017 0.754-0.754 3.017 3.017-0.754 0.754z" fill="#000000"></path>
<path d="M14.986 8.741l-3.017-3.017 0.754-0.754 3.017 3.017-0.754 0.754z" fill="#000000"></path>
</svg>

<svg xmlns="http://www.w3.org/2000/svg" width="26" height="32"><path d="M-.007 28.236L13.909 14.32l.754.754L.747 28.99l-.754-.754zM9.973 10.453h4.267v1.067H9.973v-1.067zM21.707 10.453h4.267v1.067h-4.267v-1.067zM17.44 14.72h1.067v4.267H17.44V14.72zM17.44 2.987h1.067v4.267H17.44V2.987zM23.991 5.717l-3.017 3.017-.754-.754 3.017-3.017.754.754zM23.246 17.042l-3.017-3.017.754-.754L24 16.288l-.754.754zM14.986 8.741l-3.017-3.017.754-.754 3.017 3.017-.754.754z"/></svg>
